public/imgs/2_Rechner.svg

<?xml version="1.0" encoding="UTF-8"?>
<svg xmlns="http://www.w3.org/2000/svg" version="1.1" viewBox="0 0 164.1 130.8">
  <!-- Generator: Adobe Illustrator 28.6.0, SVG Export Plug-In . SVG Version: 1.2.0 Build 709)  -->
  <g>
    <g id="Ebene_1">
      <g>
        <path d="M7.8,83.1c0-2.7,2.4-2.5,3.7-2.7,2-.2,4,0,6.3,0,0-1.2,0-3.2,0-4.2,0-18.4,0-36.9,0-55.3,0-7.6,3.9-11.4,11.5-11.4,25.5,0,51,0,76.5,0,7.6,0,11.5,3.9,11.5,11.5,0,18.4,0,36.9,0,55.3,0,.9,0,3,0,4.1,2.4,0,4.5,0,6.5,0,2.6,0,3.3.8,3.4,3.3.2,7.5-4.2,9-11.7,9-31.8,0-63.6,0-95.4,0-6.2,0-12.3-1.4-12.3-6.5s0-1.4,0-3.2ZM114.1,80.2c0-.9,0-1.7,0-2.5,0-19.4,0-38.8,0-58.3,0-4.6-1.8-7-6.5-7-26.7,0-53.4,0-80.1,0-4.8,0-6.6,2.3-6.6,7.2,0,19.3,0,38.7,0,58v2.6h93.2ZM124.2,83.5H10.9c0,3.8,2,6.2,6,6.2,33.8,0,67.6,0,101.4,0,.6,0,1.1,0,1.7,0,2.6-.4,4.2-3.1,4.3-6.1Z"/>
        <path d="M67.5,74.1c-12,0-23.9,0-35.9,0-3.2,0-3.9-.6-3.9-3.8,0-15.8,0-31.6,0-47.3,0-3,.6-3.6,3.5-3.6,24.2,0,48.4,0,72.5,0,2.9,0,3.5.6,3.5,3.6,0,15.9,0,31.7,0,47.6,0,2.8-.7,3.5-3.6,3.5-12.1,0-24.1,0-36.2,0ZM104.6,71.2c0-.9,0-1.7,0-2.5,0-14.2,0-29.6,0-43.7,0-2.1-.6-2.6-2.6-2.6-23,0-46,0-69,0-2,0-2.7.5-2.7,2.6,0,14.2,0,29.8,0,44,0,.7,0,1.4.1,2.3h74.1Z"/>
      </g>
      <path d="M52.8,65.3c-3.9,0-4.3-5.7-4.7-11.2-.3-3.6-.7-9.1-2.3-9.5-.5.1-1.7,2-2.4,3-1.1,1.7-2.2,3.3-3.6,3.9-2.5,1-4.5,0-4.7,0-.7-.3-1-1.2-.6-1.9s1.2-1,1.9-.6c0,0,1.1.5,2.4,0,.6-.2,1.6-1.7,2.3-2.8,1.5-2.3,3.1-4.7,5.4-4.1,3.6.9,4,6.3,4.5,12,.2,3.2.6,8.6,2,8.6s0,0,0,0c3-.2,2.5-8.8,2.1-15.8-.4-7.4-.8-14.4,1.8-17.3.8-.9,1.8-1.3,3-1.4,1,0,1.8.3,2.5.9,2.1,2,2.3,6.8,2.4,12.3.1,4.3.3,10.8,2.1,10.9h0c1,0,1.7-5.1,2-7.3.7-5.1,1.3-9.8,4.8-10,3.1-.2,4.1,3.9,4.9,7.9.5,2,1.3,5.8,2.2,5.9.4-.1,1.5-1.9,2.1-2.8,1.3-2,2.6-4.1,4.6-4.1s3.6,2.1,5,4.2c.8,1.1,1.8,2.5,2.4,2.8,2.4,1,4.8,0,4.8,0,.7-.3,1.6,0,1.9.7.3.7,0,1.5-.7,1.9-.1,0-3.5,1.5-7,0-1.4-.6-2.5-2.1-3.6-3.8-.7-1-2.1-3-2.7-3-.5.1-1.6,1.9-2.2,2.8-1.4,2.2-2.8,4.4-4.9,4.1-2.8-.5-3.7-4.2-4.5-8.1-.3-1.5-1.3-5.6-2-5.6h0c-1.1,0-1.8,5.1-2.1,7.5-.6,4.9-1.3,9.9-4.9,9.7-4.4-.2-4.6-6.7-4.8-13.6-.1-4.1-.2-9.1-1.5-10.3-.1-.1-.3-.2-.5-.2-.4,0-.7.2-1,.5-1.8,2-1.4,9-1.1,15.2.5,9.5,1,18.4-4.8,18.8,0,0-.2,0-.3,0Z"/>
    </g>
  </g>
</svg>

<?xml version="1.0" encoding="UTF-8" standalone="no"?>
<!DOCTYPE svg PUBLIC "-//W3C//DTD SVG 1.1//EN" "http://www.w3.org/Graphics/SVG/1.1/DTD/svg11.dtd">
<svg width="100%" height="100%" viewBox="0 0 160 100" version="1.1" xmlns="http://www.w3.org/2000/svg" xmlns:xlink="http://www.w3.org/1999/xlink" xml:space="preserve" xmlns:serif="http://www.serif.com/" style="fill-rule:evenodd;clip-rule:evenodd;stroke-linejoin:round;stroke-miterlimit:2;">
    <g id="Artboard1" transform="matrix(1.3078,0,0,1.18034,-6.70939,-9.63855)">
        <rect x="5.13" y="8.166" width="122.342" height="84.721" style="fill:none;"/>
        <g transform="matrix(0.76464,0,0,0.847211,14.7008,7.30451)">
            <g id="Ebene_1">
                <g>
                    <g transform="matrix(1,0,0,1,-0.0196566,-0.0832776)">
                        <path d="M7.8,83.1C7.8,80.4 10.2,80.6 11.5,80.4C13.5,80.2 15.5,80.4 17.8,80.4L17.8,20.9C17.8,13.3 21.7,9.5 29.3,9.5L105.8,9.5C113.4,9.5 117.3,13.4 117.3,21L117.3,80.4L123.8,80.4C126.4,80.4 127.1,81.2 127.2,83.7C127.4,91.2 123,92.7 115.5,92.7L20.1,92.7C13.9,92.7 7.8,91.3 7.8,86.2C7.8,81.1 7.8,84.8 7.8,83L7.8,83.1ZM114.1,80.2L114.1,19.4C114.1,14.8 112.3,12.4 107.6,12.4L27.5,12.4C22.7,12.4 20.9,14.7 20.9,19.6L20.9,80.2L114.1,80.2ZM124.2,83.5L10.9,83.5C10.9,87.3 12.9,89.7 16.9,89.7L120,89.7C122.6,89.3 124.2,86.6 124.3,83.6L124.2,83.5Z" style="fill:rgb(103,118,244);fill-rule:nonzero;"/>
                    </g>
                    <path d="M67.5,74.1L31.6,74.1C28.4,74.1 27.7,73.5 27.7,70.3L27.7,23C27.7,20 28.3,19.4 31.2,19.4L103.7,19.4C106.6,19.4 107.2,20 107.2,23L107.2,70.6C107.2,73.4 106.5,74.1 103.6,74.1L67.4,74.1L67.5,74.1ZM104.6,71.2L104.6,25C104.6,22.9 104,22.4 102,22.4L33,22.4C31,22.4 30.3,22.9 30.3,25L30.3,69C30.3,69.7 30.3,70.4 30.4,71.3L104.5,71.3L104.6,71.2Z" style="fill:rgb(103,118,244);fill-rule:nonzero;"/>
                </g>
                <path d="M52.8,65.3C48.9,65.3 48.5,59.6 48.1,54.1C47.8,50.5 47.4,45 45.8,44.6C45.3,44.7 44.1,46.6 43.4,47.6C42.3,49.3 41.2,50.9 39.8,51.5C37.3,52.5 35.3,51.5 35.1,51.5C34.4,51.2 34.1,50.3 34.5,49.6C34.9,48.9 35.7,48.6 36.4,49C36.4,49 37.5,49.5 38.8,49C39.4,48.8 40.4,47.3 41.1,46.2C42.6,43.9 44.2,41.5 46.5,42.1C50.1,43 50.5,48.4 51,54.1C51.2,57.3 51.6,62.7 53,62.7C54.4,62.7 53,62.7 53,62.7C56,62.5 55.5,53.9 55.1,46.9C54.7,39.5 54.3,32.5 56.9,29.6C57.7,28.7 58.7,28.3 59.9,28.2C60.9,28.2 61.7,28.5 62.4,29.1C64.5,31.1 64.7,35.9 64.8,41.4C64.9,45.7 65.1,52.2 66.9,52.3C67.9,52.3 68.6,47.2 68.9,45C69.6,39.9 70.2,35.2 73.7,35C76.8,34.8 77.8,38.9 78.6,42.9C79.1,44.9 79.9,48.7 80.8,48.8C81.2,48.7 82.3,46.9 82.9,46C84.2,44 85.5,41.9 87.5,41.9C89.5,41.9 91.1,44 92.5,46.1C93.3,47.2 94.3,48.6 94.9,48.9C97.3,49.9 99.7,48.9 99.7,48.9C100.4,48.6 101.3,48.9 101.6,49.6C101.9,50.3 101.6,51.1 100.9,51.5C100.8,51.5 97.4,53 93.9,51.5C92.5,50.9 91.4,49.4 90.3,47.7C89.6,46.7 88.2,44.7 87.6,44.7C87.1,44.8 86,46.6 85.4,47.5C84,49.7 82.6,51.9 80.5,51.6C77.7,51.1 76.8,47.4 76,43.5C75.7,42 74.7,37.9 74,37.9C72.9,37.9 72.2,43 71.9,45.4C71.3,50.3 70.6,55.3 67,55.1C62.6,54.9 62.4,48.4 62.2,41.5C62.1,37.4 62,32.4 60.7,31.2C60.6,31.1 60.4,31 60.2,31C59.8,31 59.5,31.2 59.2,31.5C57.4,33.5 57.8,40.5 58.1,46.7C58.6,56.2 59.1,65.1 53.3,65.5L53,65.5L52.8,65.3Z" style="fill:rgb(103,118,244);fill-rule:nonzero;"/>
            </g>
        </g>
    </g>
</svg>
